X: 15349
T: Gladys, The
R: reel
M: 4/4
K: Eminor
|:BF~F2 GDEB,|A,D~D2 FDFA|BF~F2 GDEB,|DEFA BAdc|
BF~F2 GDEB|Ad~d2 fdga|bf~f2 gfef|1 edBA BAGA:|2 edBA Bdeg-||
gfed edBA|Bdeb-bagf|edBA Bdeg-|gfed efga|
bf~f2 gfef|edBA Bdeg-|gfed edBA|Bdeb-bagf|
edBA Bdeg-|gfed efga|bBba BBaB|gBgf BBfB||
|:eB~B2 fBgB|~B2fB gBeB|fdAg dAfd|AgdA fdef|eB~B2 fBgB|
~B2fB gBaB|1 gfef eded|BdBA BAFD:|2 bf~f2 gefd|~d2eB dA~A2||

